X:4
T:The Cat's Meow
C:Joanie Madden
R:jig
M:6/8
L:1/8
K:D
|: D | FAd fef | afe dBA | BdB BAF | dAF E2 E |
FAd fef | afe dBA | B/2c/2de fdB | AFE D2 ::
e | fdB AFA | DFA d2 e | gef ged | ced cBA |
fdB AFA | DFA d2 e | gec age | edc d2 ::
d | FAd fef | agf agf | Ace g2 g | gfe gfe |
fef gfg | aga bag |1 faa gec | edc d2 :|2 fdB gec | dAF D2 |]
